Origami/24x24/apps/qmmp.svg

<svg width="24" height="24" version="1" xmlns="http://www.w3.org/2000/svg">
 <g transform="matrix(.5 0 0 .48387 2.0001e-5 .69359)" style="opacity:.2">
  <path d="m13 12c-4.9706 0-9 4.925-9 11 0.0039 4.714 2.465 8.901 6.119 10.41-0.079 0.523-0.1192 1.056-0.119 1.59 0 4.4183 2.6863 8 6 8 3.3137 3e-6 6-3.5817 6-8v-12c0-6.075-4.029-11-9-11z"/>
  <path d="m35 12c4.9706 0 9 4.9249 9 11-0.0039 4.7141-2.465 8.9012-6.1191 10.41 0.079 0.523 0.119 1.056 0.119 1.59 0 4.4183-2.6863 8-6 8-3.3137 3e-6 -6-3.5817-6-8v-12c0-6.0751 4.0294-11 9-11z"/>
 </g>
 <path d="m9.3584 4.50034c-0.1975 0-0.3585 0.17665-0.3585 0.39455 0 0.17809 0.10714 0.32786 0.25488 0.37695 0.222 0.8329 0.7448 1.6174 1.4672 2.1874a1.5 2 0 0 0 -0.222 1.041 1.5 2 0 0 0 0.5 1.4885v10.011c0 0.86804 0.39907 1.5 0.99999 1.5s0.99864-0.65769 0.99999-1.5v-10.012a1.5 2 0 0 0 0.5 -1.4879 1.5 2 0 0 0 -0.22 -1.041c0.72149-0.56999 1.2435-1.355 1.4655-2.1875 0.148-0.049099 0.255-0.1989 0.255-0.37695 0-0.2179-0.161-0.39455-0.3585-0.39455-0.19829 0-0.35937 0.17702-0.35937 0.39453 0 0.12004 0.04899 0.2268 0.12597 0.29883-0.20251 0.73544-0.67054 1.4299-1.3125 1.9433a1.5 2 0 0 0 -1.096 -0.6363 1.5 2 0 0 0 -1.094 0.6365c-0.643-0.5135-1.1113-1.2075-1.3138-1.9432 0.077-0.072 0.126-0.1788 0.126-0.2988 0-0.2175-0.1615-0.3945-0.3595-0.3945z" style="opacity:.2"/>
 <path d="m9.3584 4.0002c-0.1975 0-0.3585 0.17665-0.3585 0.39455 0 0.17809 0.10714 0.32786 0.25488 0.37695 0.222 0.8329 0.7448 1.6174 1.4672 2.1874a1.5 2 0 0 0 -0.222 1.041 1.5 2 0 0 0 0.5 1.4885v10.011c0 0.86804 0.39907 1.5 0.99999 1.5s0.99864-0.65769 0.99999-1.5v-10.012a1.5 2 0 0 0 0.5 -1.4879 1.5 2 0 0 0 -0.22 -1.041c0.72149-0.56999 1.2435-1.355 1.4655-2.1875 0.148-0.049099 0.255-0.1989 0.255-0.37695 0-0.2179-0.161-0.39455-0.3585-0.39455-0.19829 0-0.35937 0.17702-0.35937 0.39453 0 0.12004 0.04899 0.2268 0.12597 0.29883-0.20251 0.73544-0.67054 1.4299-1.3125 1.9433a1.5 2 0 0 0 -1.096 -0.6363 1.5 2 0 0 0 -1.094 0.6365c-0.643-0.5135-1.1113-1.2075-1.3138-1.9432 0.077-0.072 0.126-0.1788 0.126-0.2988 0-0.2175-0.1615-0.3945-0.3595-0.3945z" fill="#4f4f4f"/>
 <g transform="matrix(.5 0 0 .48387 2.0001e-5 .19345)" fill="#e75177">
  <path d="m13 12c-4.9706 0-9 4.925-9 11 0.0039 4.714 2.465 8.901 6.119 10.41-0.079 0.523-0.1192 1.056-0.119 1.59 0 4.4183 2.6863 8 6 8 3.3137 3e-6 6-3.5817 6-8v-12c0-6.075-4.029-11-9-11z"/>
  <path d="m35 12c4.9706 0 9 4.9249 9 11-0.0039 4.7141-2.465 8.9012-6.1191 10.41 0.079 0.523 0.119 1.056 0.119 1.59 0 4.4183-2.6863 8-6 8-3.3137 3e-6 -6-3.5817-6-8v-12c0-6.0751 4.0294-11 9-11z"/>
 </g>
 <path d="m5.9921875 7.5015765a4.0673307 2.3887266 77.04598 0 0 -0.4765625 0.0527344 4.0673307 2.3887266 77.04598 0 0 -1.3125 4.6054691 4.0673307 2.3887266 77.04598 0 0 3.28125 3.285156 4.0673307 2.3887266 77.04598 0 0 1.3144531 -4.605468 4.0673307 2.3887266 77.04598 0 0 -2.8066406 -3.3378915zm12.017578 0a2.3887266 4.0673307 12.95402 0 0 -2.806641 3.3378915 2.3887266 4.0673307 12.95402 0 0 1.3125 4.605468 2.3887266 4.0673307 12.95402 0 0 3.283203 -3.285156 2.3887266 4.0673307 12.95402 0 0 -1.314453 -4.6054691 2.3887266 4.0673307 12.95402 0 0 -0.474609 -0.052734zm-10.72461 8.9980475a2.0251 1.4658 76.838 0 0 -0.2890624 0.03906 2.0251 1.4658 76.838 0 0 -0.9082032 2.355469 2.0251 1.4658 76.838 0 0 1.9160156 1.566407 2.0251 1.4658 76.838 0 0 0.9082032 -2.355469 2.0251 1.4658 76.838 0 0 -1.6269532 -1.605469zm9.4277348 0a1.4658 2.0251 13.162 0 0 -1.625 1.605469 1.4658 2.0251 13.162 0 0 0.90625 2.355469 1.4658 2.0251 13.162 0 0 1.917968 -1.566407 1.4658 2.0251 13.162 0 0 -0.908203 -2.355469 1.4658 2.0251 13.162 0 0 -0.291015 -0.03906z" style="opacity:.2"/>
 <path d="m5.9921875 7.0019531a4.0673307 2.3887266 77.04598 0 0 -0.4765625 0.0527344 4.0673307 2.3887266 77.04598 0 0 -1.3125 4.6054685 4.0673307 2.3887266 77.04598 0 0 3.28125 3.285156 4.0673307 2.3887266 77.04598 0 0 1.3144531 -4.605468 4.0673307 2.3887266 77.04598 0 0 -2.8066406 -3.3378909zm12.017578 0a2.3887266 4.0673307 12.95402 0 0 -2.806641 3.3378909 2.3887266 4.0673307 12.95402 0 0 1.3125 4.605468 2.3887266 4.0673307 12.95402 0 0 3.283203 -3.285156 2.3887266 4.0673307 12.95402 0 0 -1.314453 -4.6054685 2.3887266 4.0673307 12.95402 0 0 -0.474609 -0.0527344zm-10.72461 8.9980469a2.0251 1.4658 76.838 0 0 -0.2890624 0.039062 2.0251 1.4658 76.838 0 0 -0.9082032 2.355469 2.0251 1.4658 76.838 0 0 1.9160156 1.566407 2.0251 1.4658 76.838 0 0 0.9082032 -2.355469 2.0251 1.4658 76.838 0 0 -1.6269532 -1.605469zm9.4277348 0a1.4658 2.0251 13.162 0 0 -1.625 1.605469 1.4658 2.0251 13.162 0 0 0.90625 2.355469 1.4658 2.0251 13.162 0 0 1.917968 -1.566407 1.4658 2.0251 13.162 0 0 -0.908203 -2.355469 1.4658 2.0251 13.162 0 0 -0.291015 -0.039062z" style="fill:#ff85aa"/>
 <path d="m5.9921875 7.0019531a4.0673307 2.3887266 77.04598 0 0 -0.4765625 0.0527344 4.0673307 2.3887266 77.04598 0 0 -1.5078125 3.2265625 4.0673307 2.3887266 77.04598 0 1 1.5078125 -2.7265625 4.0673307 2.3887266 77.04598 0 1 0.4765625 -0.0527344 4.0673307 2.3887266 77.04598 0 1 2.8066406 3.3378909 4.0673307 2.3887266 77.04598 0 1 0.1953125 1.380859 4.0673307 2.3887266 77.04598 0 0 -0.1953125 -1.880859 4.0673307 2.3887266 77.04598 0 0 -2.8066406 -3.3378909zm12.017578 0a2.3887266 4.0673307 12.95402 0 0 -2.806641 3.3378909 2.3887266 4.0673307 12.95402 0 0 -0.195313 1.871094 2.3887266 4.0673307 12.95402 0 1 0.195313 -1.371094 2.3887266 4.0673307 12.95402 0 1 2.806641 -3.3378909 2.3887266 4.0673307 12.95402 0 1 0.474609 0.0527344 2.3887266 4.0673307 12.95402 0 1 1.507813 2.7285155 2.3887266 4.0673307 12.95402 0 0 -1.507813 -3.2285155 2.3887266 4.0673307 12.95402 0 0 -0.474609 -0.0527344zm-10.72461 8.9980469a2.0251 1.4658 76.838 0 0 -0.2890624 0.039062 2.0251 1.4658 76.838 0 0 -0.9824219 1.916016 2.0251 1.4658 76.838 0 1 0.9824219 -1.416016 2.0251 1.4658 76.838 0 1 0.2890624 -0.039062 2.0251 1.4658 76.838 0 1 1.6269532 1.605469 2.0251 1.4658 76.838 0 1 0.0761718 0.439453 2.0251 1.4658 76.838 0 0 -0.0761718 -0.939453 2.0251 1.4658 76.838 0 0 -1.6269532 -1.605469zm9.4277348 0a1.4658 2.0251 13.162 0 0 -1.625 1.605469 1.4658 2.0251 13.162 0 0 -0.074219 0.933593 1.4658 2.0251 13.162 0 1 0.074219 -0.433593 1.4658 2.0251 13.162 0 1 1.625 -1.605469 1.4658 2.0251 13.162 0 1 0.291015 0.039062 1.4658 2.0251 13.162 0 1 0.982422 1.431641 1.4658 2.0251 13.162 0 0 -0.982422 -1.931641 1.4658 2.0251 13.162 0 0 -0.291015 -0.039062z" style="fill:#ffffff;opacity:.1"/>
 <g transform="matrix(.5 0 0 .48387 2.0001e-5 .19345)" style="fill:#ffffff;opacity:.2">
  <path transform="matrix(2 0 0 2.0666708 -4.0002e-5 -.39979747)" d="m6.5 6c-2.4853 0-4.5 2.3827554-4.5 5.322266 8.09e-5 0.094615 0.0152675 0.185632 0.0195312 0.279296 0.1000314-2.8347798 2.0591278-5.101562 4.4804688-5.101562 2.4855 0 4.5 2.3827554 4.5 5.322266v-0.5c0-2.9395106-2.0145-5.322266-4.5-5.322266zm-1.4785156 10.839844c-0.005619 0.096678-0.021522 0.192017-0.0214844 0.289062 0 0.085067 0.015343 0.164346 0.0195312 0.248047 0.0087722-0.173252 0.0124966-0.347379 0.0390626-0.517578-0.0130512-0.005216-0.0241194-0.014183-0.0371094-0.019531z" style="fill:#ffffff"/>
  <path transform="matrix(2 0 0 2.0666708 -4.0002e-5 -.39979747)" d="m17.5 6c-2.4853 0-4.5 2.382707-4.5 5.322266v0.5c0-2.939559 2.0147-5.322266 4.5-5.322266 2.421341 0 4.380437 2.2667398 4.480469 5.101562 0.004263-0.093666 0.01945-0.184678 0.019531-0.279296 0-2.939559-2.0147-5.322266-4.5-5.322266zm1.478516 10.839844c-0.012991 0.005347-0.024058 0.014316-0.03711 0.019531 0.026566 0.170199 0.03029 0.344326 0.039063 0.517578 0.004188-0.083701 0.019531-0.16298 0.019531-0.248047 0-0.097045-0.015868-0.192384-0.021484-0.289062z" style="fill:#ffffff"/>
 </g>
 <path d="m9.359375 4c-0.1975 0-0.359375 0.1766313-0.359375 0.3945312 0 0.0966151 0.0354493 0.1796553 0.0878906 0.2480469 0.0658422-0.0855463 0.1619694-0.1425781 0.2714844-0.1425781 0.1089672 0 0.2035092 0.0561601 0.2695312 0.140625 0.0517699-0.0679828 0.0898438-0.150298 0.0898438-0.2460938 0-0.2175-0.161375-0.3945312-0.359375-0.3945312zm5.283203 0c-0.19829 0-0.359375 0.1770213-0.359375 0.3945312 0 0.0968493 0.037094 0.1797518 0.089844 0.2480469 0.065947-0.0851237 0.159918-0.1425781 0.269531-0.1425781 0.109638 0 0.203688 0.0568663 0.269531 0.1425781 0.052446-0.0683968 0.087891-0.1514535 0.087891-0.2480469 0-0.2179-0.159922-0.3945312-0.357422-0.3945312zm-4.9433592 0.984375c-0.0181164 0.0815426-0.0510483 0.1562714-0.1074219 0.2089844 0.1491819 0.5419909 0.4444311 1.0607219 0.8457031 1.5019531 0.094016 0.0888601 0.182845 0.1829449 0.285156 0.2636719a1.5 2 0 0 0 -0.001953 0.0058594c0.062578 0.0567277 0.119143 0.1188444 0.185547 0.171875a1.5 2 0 0 1 1.09375 -0.6367188 1.5 2 0 0 1 1.095703 0.6367188c0.066452-0.0531444 0.122924-0.1150059 0.185547-0.171875a1.5 2 0 0 0 -0.001953 -0.0058594c0.100941-0.0797451 0.188393-0.1720619 0.28125-0.2597656 0.402283-0.4420034 0.698103-0.9627376 0.847656-1.5058594-0.0564-0.0527736-0.08933-0.1273612-0.107422-0.2089844-0.235659 0.6247762-0.649472 1.2080041-1.205078 1.6523438a1.5 2 0 0 0 -1.095703 -0.6367188 1.5 2 0 0 0 -1.09375 0.6367188c-0.556608-0.4445076-0.9713342-1.0273593-1.2070312-1.6523438zm0.8886722 2.3496094a1.5 2 0 0 0 -0.087891 0.6660156 1.5 2 0 0 0 0.013672 0.2539062 1.5 2 0 0 1 0.208984 -0.7949218c-0.048421-0.0382065-0.088168-0.0849161-0.134765-0.125zm2.824218 0.0019531c-0.045959 0.039545-0.085078 0.0853357-0.132812 0.1230469a1.5 2 0 0 1 0.207031 0.7890625 1.5 2 0 0 0 0.013672 -0.2480469 1.5 2 0 0 0 -0.087891 -0.6640625z" style="fill:#ffffff;opacity:.1"/>
</svg>

<svg xmlns="http://www.w3.org/2000/svg" width="24" height="24" version="1">
 <g style="opacity:0.2" transform="matrix(0.5,0,0,0.48387,2.0001e-5,0.69359)">
  <path d="M 13,12 C 8.0294,12 4,16.925 4,23 4.0039,27.714 6.465,31.901 10.119,33.41 10.04,33.933 9.9998,34.466 10,35 c 0,4.4183 2.6863,8 6,8 3.3137,3e-6 6,-3.5817 6,-8 V 23 C 22,16.925 17.971,12 13,12 Z"/>
  <path d="m 35,12 c 4.9706,0 9,4.9249 9,11 -0.0039,4.7141 -2.465,8.9012 -6.1191,10.41 0.079,0.523 0.119,1.056 0.119,1.59 0,4.4183 -2.6863,8 -6,8 -3.3137,3e-6 -6,-3.5817 -6,-8 V 23 c 0,-6.0751 4.0294,-11 9,-11 z"/>
 </g>
 <path style="opacity:0.2" d="m 9.3584,4.50034 c -0.1975,0 -0.3585,0.17665 -0.3585,0.39455 0,0.17809 0.10714,0.32786 0.25488,0.37695 0.222,0.8329 0.7448,1.6174 1.4672,2.1874 a 1.5,2 0 0 0 -0.222,1.041 1.5,2 0 0 0 0.5,1.4885 v 10.011 c 0,0.86804 0.39907,1.5 0.99999,1.5 0.60092,0 0.99864,-0.65769 0.99999,-1.5 v -10.012 a 1.5,2 0 0 0 0.5,-1.4879 1.5,2 0 0 0 -0.22,-1.041 c 0.72149,-0.56999 1.2435,-1.355 1.4655,-2.1875 0.148,-0.049099 0.255,-0.1989 0.255,-0.37695 0,-0.2179 -0.161,-0.39455 -0.3585,-0.39455 -0.19829,0 -0.35937,0.17702 -0.35937,0.39453 0,0.12004 0.04899,0.2268 0.12597,0.29883 -0.20251,0.73544 -0.67054,1.4299 -1.3125,1.9433 a 1.5,2 0 0 0 -1.096,-0.6363 1.5,2 0 0 0 -1.094,0.6365 c -0.643,-0.5135 -1.1113,-1.2075 -1.3138,-1.9432 0.077,-0.072 0.126,-0.1788 0.126,-0.2988 0,-0.2175 -0.1615,-0.3945 -0.3595,-0.3945 z"/>
 <path fill="#4f4f4f" d="m9.3584 4.0002c-0.1975 0-0.3585 0.17665-0.3585 0.39455 0 0.17809 0.10714 0.32786 0.25488 0.37695 0.222 0.8329 0.7448 1.6174 1.4672 2.1874a1.5 2 0 0 0 -0.222 1.041 1.5 2 0 0 0 0.5 1.4885v10.011c0 0.86804 0.39907 1.5 0.99999 1.5s0.99864-0.65769 0.99999-1.5v-10.012a1.5 2 0 0 0 0.5 -1.4879 1.5 2 0 0 0 -0.22 -1.041c0.72149-0.56999 1.2435-1.355 1.4655-2.1875 0.148-0.049099 0.255-0.1989 0.255-0.37695 0-0.2179-0.161-0.39455-0.3585-0.39455-0.19829 0-0.35937 0.17702-0.35937 0.39453 0 0.12004 0.04899 0.2268 0.12597 0.29883-0.20251 0.73544-0.67054 1.4299-1.3125 1.9433a1.5 2 0 0 0 -1.096 -0.6363 1.5 2 0 0 0 -1.094 0.6365c-0.643-0.5135-1.1113-1.2075-1.3138-1.9432 0.077-0.072 0.126-0.1788 0.126-0.2988 0-0.2175-0.1615-0.3945-0.3595-0.3945z"/>
 <g fill="#e75177" transform="matrix(.5 0 0 .48387 .000020001 .19345)">
  <path d="m13 12c-4.9706 0-9 4.925-9 11 0.0039 4.714 2.465 8.901 6.119 10.41-0.079 0.523-0.1192 1.056-0.119 1.59 0 4.4183 2.6863 8 6 8 3.3137 0.000003 6-3.5817 6-8v-12c0-6.075-4.029-11-9-11z"/>
  <path d="m35 12c4.9706 0 9 4.9249 9 11-0.0039 4.7141-2.465 8.9012-6.1191 10.41 0.079 0.523 0.119 1.056 0.119 1.59 0 4.4183-2.6863 8-6 8-3.3137 0.000003-6-3.5817-6-8v-12c0-6.0751 4.0294-11 9-11z"/>
 </g>
 <path style="opacity:0.2" d="M 5.9921875,7.5015765 A 4.0673307,2.3887266 77.04598 0 0 5.515625,7.5543109 4.0673307,2.3887266 77.04598 0 0 4.203125,12.15978 4.0673307,2.3887266 77.04598 0 0 7.484375,15.444936 4.0673307,2.3887266 77.04598 0 0 8.7988281,10.839468 4.0673307,2.3887266 77.04598 0 0 5.9921875,7.5015765 Z m 12.0175785,0 a 2.3887266,4.0673307 12.95402 0 0 -2.806641,3.3378915 2.3887266,4.0673307 12.95402 0 0 1.3125,4.605468 2.3887266,4.0673307 12.95402 0 0 3.283203,-3.285156 2.3887266,4.0673307 12.95402 0 0 -1.314453,-4.6054691 2.3887266,4.0673307 12.95402 0 0 -0.474609,-0.052734 z M 7.2851562,16.499624 a 2.0251,1.4658 76.838 0 0 -0.2890624,0.03906 2.0251,1.4658 76.838 0 0 -0.9082032,2.355469 2.0251,1.4658 76.838 0 0 1.9160156,1.566407 2.0251,1.4658 76.838 0 0 0.9082032,-2.355469 2.0251,1.4658 76.838 0 0 -1.6269532,-1.605469 z m 9.4277348,0 a 1.4658,2.0251 13.162 0 0 -1.625,1.605469 1.4658,2.0251 13.162 0 0 0.90625,2.355469 1.4658,2.0251 13.162 0 0 1.917968,-1.566407 1.4658,2.0251 13.162 0 0 -0.908203,-2.355469 1.4658,2.0251 13.162 0 0 -0.291015,-0.03906 z"/>
 <path style="fill:#ff85aa" d="M 5.9921875 7.0019531 A 4.0673307 2.3887266 77.04598 0 0 5.515625 7.0546875 A 4.0673307 2.3887266 77.04598 0 0 4.203125 11.660156 A 4.0673307 2.3887266 77.04598 0 0 7.484375 14.945312 A 4.0673307 2.3887266 77.04598 0 0 8.7988281 10.339844 A 4.0673307 2.3887266 77.04598 0 0 5.9921875 7.0019531 z M 18.009766 7.0019531 A 2.3887266 4.0673307 12.95402 0 0 15.203125 10.339844 A 2.3887266 4.0673307 12.95402 0 0 16.515625 14.945312 A 2.3887266 4.0673307 12.95402 0 0 19.798828 11.660156 A 2.3887266 4.0673307 12.95402 0 0 18.484375 7.0546875 A 2.3887266 4.0673307 12.95402 0 0 18.009766 7.0019531 z M 7.2851562 16 A 2.0251 1.4658 76.838 0 0 6.9960938 16.039062 A 2.0251 1.4658 76.838 0 0 6.0878906 18.394531 A 2.0251 1.4658 76.838 0 0 8.0039062 19.960938 A 2.0251 1.4658 76.838 0 0 8.9121094 17.605469 A 2.0251 1.4658 76.838 0 0 7.2851562 16 z M 16.712891 16 A 1.4658 2.0251 13.162 0 0 15.087891 17.605469 A 1.4658 2.0251 13.162 0 0 15.994141 19.960938 A 1.4658 2.0251 13.162 0 0 17.912109 18.394531 A 1.4658 2.0251 13.162 0 0 17.003906 16.039062 A 1.4658 2.0251 13.162 0 0 16.712891 16 z"/>
 <path style="fill:#ffffff;opacity:0.1" d="M 5.9921875 7.0019531 A 4.0673307 2.3887266 77.04598 0 0 5.515625 7.0546875 A 4.0673307 2.3887266 77.04598 0 0 4.0078125 10.28125 A 4.0673307 2.3887266 77.04598 0 1 5.515625 7.5546875 A 4.0673307 2.3887266 77.04598 0 1 5.9921875 7.5019531 A 4.0673307 2.3887266 77.04598 0 1 8.7988281 10.839844 A 4.0673307 2.3887266 77.04598 0 1 8.9941406 12.220703 A 4.0673307 2.3887266 77.04598 0 0 8.7988281 10.339844 A 4.0673307 2.3887266 77.04598 0 0 5.9921875 7.0019531 z M 18.009766 7.0019531 A 2.3887266 4.0673307 12.95402 0 0 15.203125 10.339844 A 2.3887266 4.0673307 12.95402 0 0 15.007812 12.210938 A 2.3887266 4.0673307 12.95402 0 1 15.203125 10.839844 A 2.3887266 4.0673307 12.95402 0 1 18.009766 7.5019531 A 2.3887266 4.0673307 12.95402 0 1 18.484375 7.5546875 A 2.3887266 4.0673307 12.95402 0 1 19.992188 10.283203 A 2.3887266 4.0673307 12.95402 0 0 18.484375 7.0546875 A 2.3887266 4.0673307 12.95402 0 0 18.009766 7.0019531 z M 7.2851562 16 A 2.0251 1.4658 76.838 0 0 6.9960938 16.039062 A 2.0251 1.4658 76.838 0 0 6.0136719 17.955078 A 2.0251 1.4658 76.838 0 1 6.9960938 16.539062 A 2.0251 1.4658 76.838 0 1 7.2851562 16.5 A 2.0251 1.4658 76.838 0 1 8.9121094 18.105469 A 2.0251 1.4658 76.838 0 1 8.9882812 18.544922 A 2.0251 1.4658 76.838 0 0 8.9121094 17.605469 A 2.0251 1.4658 76.838 0 0 7.2851562 16 z M 16.712891 16 A 1.4658 2.0251 13.162 0 0 15.087891 17.605469 A 1.4658 2.0251 13.162 0 0 15.013672 18.539062 A 1.4658 2.0251 13.162 0 1 15.087891 18.105469 A 1.4658 2.0251 13.162 0 1 16.712891 16.5 A 1.4658 2.0251 13.162 0 1 17.003906 16.539062 A 1.4658 2.0251 13.162 0 1 17.986328 17.970703 A 1.4658 2.0251 13.162 0 0 17.003906 16.039062 A 1.4658 2.0251 13.162 0 0 16.712891 16 z"/>
 <g style="fill:#ffffff;opacity:0.2" transform="matrix(.5 0 0 .48387 .000020001 .19345)">
  <path style="fill:#ffffff" d="M 6.5 6 C 4.0147 6 2 8.3827554 2 11.322266 C 2.0000809 11.416881 2.0152675 11.507898 2.0195312 11.601562 C 2.1195626 8.7667822 4.078659 6.5 6.5 6.5 C 8.9855 6.5 11 8.8827554 11 11.822266 L 11 11.322266 C 11 8.3827554 8.9855 6 6.5 6 z M 5.0214844 16.839844 C 5.0158654 16.936522 4.9999624 17.031861 5 17.128906 C 5 17.213973 5.015343 17.293252 5.0195312 17.376953 C 5.0283034 17.203701 5.0320278 17.029574 5.0585938 16.859375 C 5.0455426 16.854159 5.0344744 16.845192 5.0214844 16.839844 z" transform="matrix(2,0,0,2.0666708,-4.0002e-5,-0.39979747)"/>
  <path style="fill:#ffffff" d="M 17.5 6 C 15.0147 6 13 8.382707 13 11.322266 L 13 11.822266 C 13 8.882707 15.0147 6.5 17.5 6.5 C 19.921341 6.5 21.880437 8.7667398 21.980469 11.601562 C 21.984732 11.507896 21.999919 11.416884 22 11.322266 C 22 8.382707 19.9853 6 17.5 6 z M 18.978516 16.839844 C 18.965525 16.845191 18.954458 16.85416 18.941406 16.859375 C 18.967972 17.029574 18.971696 17.203701 18.980469 17.376953 C 18.984657 17.293252 19 17.213973 19 17.128906 C 19 17.031861 18.984132 16.936522 18.978516 16.839844 z" transform="matrix(2,0,0,2.0666708,-4.0002e-5,-0.39979747)"/>
 </g>
 <path style="fill:#ffffff;opacity:0.1" d="M 9.359375 4 C 9.161875 4 9 4.1766313 9 4.3945312 C 9 4.4911463 9.0354493 4.5741865 9.0878906 4.6425781 C 9.1537328 4.5570318 9.24986 4.5 9.359375 4.5 C 9.4683422 4.5 9.5628842 4.5561601 9.6289062 4.640625 C 9.6806761 4.5726422 9.71875 4.490327 9.71875 4.3945312 C 9.71875 4.1770312 9.557375 4 9.359375 4 z M 14.642578 4 C 14.444288 4 14.283203 4.1770213 14.283203 4.3945312 C 14.283203 4.4913805 14.320297 4.574283 14.373047 4.6425781 C 14.438994 4.5574544 14.532965 4.5 14.642578 4.5 C 14.752216 4.5 14.846266 4.5568663 14.912109 4.6425781 C 14.964555 4.5741813 15 4.4911246 15 4.3945312 C 15 4.1766312 14.840078 4 14.642578 4 z M 9.6992188 4.984375 C 9.6811024 5.0659176 9.6481705 5.1406464 9.5917969 5.1933594 C 9.7409788 5.7353503 10.036228 6.2540813 10.4375 6.6953125 C 10.531516 6.7841726 10.620345 6.8782574 10.722656 6.9589844 A 1.5 2 0 0 0 10.720703 6.9648438 C 10.783281 7.0215715 10.839846 7.0836882 10.90625 7.1367188 A 1.5 2 0 0 1 12 6.5 A 1.5 2 0 0 1 13.095703 7.1367188 C 13.162155 7.0835744 13.218627 7.0217129 13.28125 6.9648438 A 1.5 2 0 0 0 13.279297 6.9589844 C 13.380238 6.8792393 13.46769 6.7869225 13.560547 6.6992188 C 13.96283 6.2572154 14.25865 5.7364812 14.408203 5.1933594 C 14.351803 5.1405858 14.318873 5.0659982 14.300781 4.984375 C 14.065122 5.6091512 13.651309 6.1923791 13.095703 6.6367188 A 1.5 2 0 0 0 12 6 A 1.5 2 0 0 0 10.90625 6.6367188 C 10.349642 6.1922112 9.9349158 5.6093595 9.6992188 4.984375 z M 10.587891 7.3339844 A 1.5 2 0 0 0 10.5 8 A 1.5 2 0 0 0 10.513672 8.2539062 A 1.5 2 0 0 1 10.722656 7.4589844 C 10.674235 7.4207779 10.634488 7.3740683 10.587891 7.3339844 z M 13.412109 7.3359375 C 13.36615 7.3754825 13.327031 7.4212732 13.279297 7.4589844 A 1.5 2 0 0 1 13.486328 8.2480469 A 1.5 2 0 0 0 13.5 8 A 1.5 2 0 0 0 13.412109 7.3359375 z"/>
</svg>
